X:061 
T:Father Skehan's Jig*
F:file ID: cre.5/061fr_skeh
B:CRE5.054 (gan ainm)
N:Breathnach got this tune from Fr. Skehan, originally from
Kilkenny, who was then living in the US.
M:6/8
Q:160
R:jig
K:D
A|BEE FDD|BEE F3|BEE F2E|FDD D3|
BEE FDD|BEE F3|Bcd A2G|FDD D2:|
|:A|dcd Bcd|e2d cBA|dcd Bcd|efe A3|
BBB Bcd|e2d cBA|BEE F2E|1FDD D2:|\
[2 FDDD3-|D6||

%%%

